OnnoKampman/FCEst-benchmarking/results/fmri/sim/d4s/N0400_T0010/HCP_noise_snr_2/all/ttests/covariance_matrix_RMSE/stepwise_between_method_performance_ptests.csv
,VWP_joint,SVWP_joint,DCC_joint,DCC_bivariate_loop,SW_cross_validated,SW_15,SW_30,SW_60,SW_120,sFC
VWP_joint,-,nan,nan,nan,nan,nan,nan,nan,nan,nan
SVWP_joint,nan,-,0.0107,1.,0.0123,0.0000,0.0000,0.0006,0.0258,0.0000
DCC_joint,nan,-4.4685,-,0.0000,1.,0.0000,0.0000,0.6213,1.,0.0000
DCC_bivariate_loop,nan,1.7366,10.22,-,0.0000,0.0000,0.0000,0.0000,0.0000,0.0000
SW_cross_validated,nan,-4.4038,-0.545,-8.5995,-,0.0000,0.0000,1.,1.,0.0000
SW_15,nan,-18.5387,-25.4827,-34.4285,-18.5674,-,0.0000,0.0000,0.0000,0.0000
SW_30,nan,-10.7396,-10.788,-20.0239,-7.9017,13.0097,-,0.0002,0.0000,0.0000
SW_60,nan,-5.837,-2.6226,-10.9465,-1.7046,17.4122,6.2687,-,1.,0.0000
SW_120,nan,-4.0709,0.0688,-8.3394,0.5309,20.1184,8.858,2.3113,-,0.0000
sFC,nan,-15.4622,-22.8589,-33.4036,-14.7589,9.9936,-7.4968,-13.3325,-16.4113,-
