OnnoKampman/FCEst-benchmarking/results/fmri/sim/d6s/N0400_T0010/HCP_noise_snr_2/all/ttests/covariance_matrix_RMSE/stepwise_between_method_performance_ptests.csv
,VWP_joint,SVWP_joint,DCC_joint,DCC_bivariate_loop,SW_cross_validated,SW_15,SW_30,SW_60,SW_120,sFC
VWP_joint,-,nan,nan,nan,nan,nan,nan,nan,nan,nan
SVWP_joint,nan,-,0.0000,1.,0.0000,0.0000,0.0000,0.0000,0.0000,0.0000
DCC_joint,nan,-12.0675,-,0.0000,1.,0.0000,0.0000,0.0000,1.,0.0000
DCC_bivariate_loop,nan,2.1103,20.1646,-,0.0000,0.0000,0.0000,0.0000,0.0000,0.0000
SW_cross_validated,nan,-13.6939,-1.4225,-23.6319,-,0.0000,0.0000,0.0002,1.,0.0000
SW_15,nan,-44.7851,-38.9468,-65.9506,-39.5559,-,0.0000,0.0000,0.0000,0.0000
SW_30,nan,-31.1761,-22.3817,-53.8557,-22.3471,22.2553,-,0.0000,0.0000,0.0000
SW_60,nan,-18.7202,-7.4709,-31.3823,-6.4147,33.9012,15.5222,-,0.0421,0.0004
SW_120,nan,-12.5555,-2.2201,-18.3775,-1.1281,30.8233,15.6329,3.8512,-,0.0000
sFC,nan,-25.8047,-14.8657,-58.2668,-14.4365,37.313,15.327,-5.9651,-8.5007,-
