OnnoKampman/FCEst-benchmarking/results/fmri/sim/d4s/N0400_T0010/HCP_noise_snr_6/all/ttests/covariance_matrix_RMSE/checkerboard_between_method_performance_T.csv
,VWP_joint,SVWP_joint,DCC_joint,DCC_bivariate_loop,SW_cross_validated,SW_15,SW_30,SW_60,SW_120,sFC
VWP_joint,,,,,,,,,,
SVWP_joint,,,0.64,-3.61,4.94,23.10,11.76,5.36,7.83,2.12
DCC_joint,,0.64,,-9.82,6.61,44.10,21.51,9.18,17.69,4.69
DCC_bivariate_loop,,-3.61,-9.82,,11.17,46.37,26.18,15.11,23.37,13.94
SW_cross_validated,,4.94,6.61,11.17,,19.82,6.90,-0.38,2.01,-4.98
SW_15,,23.10,44.10,46.37,19.82,,-17.12,-26.82,-28.40,-43.18
SW_30,,11.76,21.51,26.18,6.90,-17.12,,-9.61,-7.90,-19.70
SW_60,,5.36,9.18,15.11,-0.38,-26.82,-9.61,,3.46,-6.90
SW_120,,7.83,17.69,23.37,2.01,-28.40,-7.90,3.46,,-15.29
sFC,,2.12,4.69,13.94,-4.98,-43.18,-19.70,-6.90,-15.29,
