OnnoKampman/FCEst-benchmarking/results/fmri/sim/d3s/N0200_T0200/HCP_noise_snr_6/all/ttests/correlation_RMSE/periodic_3_between_method_performance_ptests.csv
,VWP_joint,SVWP_joint,DCC_joint,DCC_bivariate_loop,SW_cross_validated,SW_15,SW_30,SW_60,SW_120,sFC
VWP_joint,-,nan,nan,nan,nan,nan,nan,nan,nan,nan
SVWP_joint,nan,-,0.0000,0.0000,0.0000,0.0000,0.0000,0.0000,0.,0.
DCC_joint,nan,-40.8635,-,0.0000,0.0000,0.0000,0.0000,0.0000,0.0000,0.0000
DCC_bivariate_loop,nan,-33.8573,10.7689,-,0.0000,0.0000,0.0000,0.0000,0.,0.
SW_cross_validated,nan,-13.2052,26.7682,18.8451,-,0.0000,0.0000,0.0000,0.0000,0.0000
SW_15,nan,-6.2874,42.5504,34.6369,9.1386,-,0.0000,0.,0.,0.
SW_30,nan,-21.2149,26.0636,16.5138,-5.8179,-18.8232,-,0.0000,0.,0.
SW_60,nan,-99.9223,-60.3745,-83.3604,-83.8236,-127.9265,-107.4331,-,0.0000,0.0000
SW_120,nan,-139.9724,-107.8369,-139.8608,-124.0747,-188.0363,-168.0843,-83.6173,-,0.0000
sFC,nan,-129.9114,-95.1681,-127.9293,-113.4133,-179.123,-157.8999,-62.2948,49.73,-
