OnnoKampman/FCEst-benchmarking/results/fmri/sim/d3s/N0200_T0200/no_noise/all/ttests/covariance_RMSE/state_transition_between_method_performance_T.csv
,VWP_joint,SVWP_joint,DCC_joint,DCC_bivariate_loop,SW_cross_validated,SW_15,SW_30,SW_60,SW_120,sFC
VWP_joint,,,,,,,,,,
SVWP_joint,,,-6.91,-5.64,13.54,25.34,13.94,19.84,14.66,-6.45
DCC_joint,,-6.91,,0.58,19.82,29.03,18.13,25.78,19.35,1.19
DCC_bivariate_loop,,-5.64,0.58,,17.90,27.97,17.13,23.73,18.12,0.39
SW_cross_validated,,13.54,19.82,17.90,,16.36,4.12,6.57,3.85,-20.12
SW_15,,25.34,29.03,27.97,16.36,,-11.09,-11.49,-12.04,-29.10
SW_30,,13.94,18.13,17.13,4.12,-11.09,,1.08,-0.50,-18.04
SW_60,,19.84,25.78,23.73,6.57,-11.49,1.08,,-1.75,-26.25
SW_120,,14.66,19.35,18.12,3.85,-12.04,-0.50,-1.75,,-19.34
sFC,,-6.45,1.19,0.39,-20.12,-29.10,-18.04,-26.25,-19.34,
