OnnoKampman/FCEst-benchmarking/results/fmri/sim/d3s/N0200_T0200/HCP_noise_snr_2/all/ttests/covariance_matrix_RMSE/stepwise_between_method_performance_ptests.csv
,VWP_joint,SVWP_joint,DCC_joint,DCC_bivariate_loop,SW_cross_validated,SW_15,SW_30,SW_60,SW_120,sFC
VWP_joint,-,nan,nan,nan,nan,nan,nan,nan,nan,nan
SVWP_joint,nan,-,0.0000,0.0000,0.0000,0.0000,0.0000,0.0000,0.0000,0.0000
DCC_joint,nan,-13.0222,-,0.0000,0.0000,0.0000,0.0000,0.0049,0.0000,0.0000
DCC_bivariate_loop,nan,7.5087,27.5822,-,0.0000,0.0000,0.0000,0.0000,0.0000,0.0000
SW_cross_validated,nan,-17.4571,-7.0373,-30.9194,-,0.0000,0.0000,0.0367,0.0204,0.0000
SW_15,nan,-51.6054,-51.492,-75.3382,-39.1729,-,0.0000,0.0000,0.0000,0.0000
SW_30,nan,-26.2054,-18.2547,-42.5783,-9.7826,30.0474,-,0.0000,0.0000,0.0000
SW_60,nan,-15.4559,-3.8524,-29.6802,3.3097,45.297,13.8425,-,0.0000,0.0000
SW_120,nan,-20.3445,-10.8235,-34.339,-3.4746,35.1616,6.1224,-6.964,-,0.0000
sFC,nan,-69.6385,-87.8816,-120.0681,-60.8985,-9.5698,-50.0014,-73.698,-55.0358,-
