OnnoKampman/FCEst-benchmarking/results/fmri/sim/d15s/N0400_T0010/no_noise/all/ttests/correlation_RMSE/periodic_1_between_method_performance_T.csv
,VWP_joint,SVWP_joint,DCC_joint,DCC_bivariate_loop,SW_cross_validated,SW_15,SW_30,SW_60,SW_120,sFC
VWP_joint,,,,,,,,,,
SVWP_joint,,,59.03,9.39,12.00,9.91,5.11,3.26,9.94,76.15
DCC_joint,,59.03,,-48.14,-34.49,-62.51,-59.20,-56.18,-60.94,9.28
DCC_bivariate_loop,,9.39,-48.14,,4.00,-1.09,-4.96,-6.23,-0.91,63.36
SW_cross_validated,,12.00,-34.49,4.00,,-5.35,-8.34,-9.32,-5.16,43.02
SW_15,,9.91,-62.51,-1.09,-5.35,,-4.78,-6.23,0.21,94.85
SW_30,,5.11,-59.20,-4.96,-8.34,-4.78,,-1.67,4.89,80.86
SW_60,,3.26,-56.18,-6.23,-9.32,-6.23,-1.67,,6.31,73.40
SW_120,,9.94,-60.94,-0.91,-5.16,0.21,4.89,6.31,,90.78
sFC,,76.15,9.28,63.36,43.02,94.85,80.86,73.40,90.78,
