OnnoKampman/FCEst-benchmarking/results/fmri/sim/d3d/N0400_T0010/HCP_noise_snr_6/all/ttests/covariance_matrix_RMSE/state_transition_between_method_performance_T.csv
,VWP_joint,SVWP_joint,DCC_joint,DCC_bivariate_loop,SW_cross_validated,SW_15,SW_30,SW_60,SW_120,sFC
VWP_joint,,,,,,,,,,
SVWP_joint,,,-4.09,-4.30,9.47,17.57,9.45,8.20,11.84,-3.90
DCC_joint,,-4.09,,-0.54,13.36,20.21,12.02,11.67,17.08,1.57
DCC_bivariate_loop,,-4.30,-0.54,,13.21,20.11,12.05,11.62,16.53,2.04
SW_cross_validated,,9.47,13.36,13.21,,10.37,2.43,-0.55,0.48,-14.28
SW_15,,17.57,20.21,20.11,10.37,,-6.89,-10.48,-10.71,-20.71
SW_30,,9.45,12.02,12.05,2.43,-6.89,,-2.78,-2.26,-12.16
SW_60,,8.20,11.67,11.62,-0.55,-10.48,-2.78,,1.06,-12.17
SW_120,,11.84,17.08,16.53,0.48,-10.71,-2.26,1.06,,-19.79
sFC,,-3.90,1.57,2.04,-14.28,-20.71,-12.16,-12.17,-19.79,
