OnnoKampman/FCEst-benchmarking/results/fmri/sim/d3s/N0400_T0010/no_noise/all/ttests/correlation_RMSE/null_between_method_performance_T.csv
,VWP_joint,SVWP_joint,DCC_joint,DCC_bivariate_loop,SW_cross_validated,SW_15,SW_30,SW_60,SW_120,sFC
VWP_joint,,,,,,,,,,
SVWP_joint,,,4.04,4.10,8.21,37.23,22.16,15.57,8.71,3.03
DCC_joint,,4.04,,1.10,4.64,28.89,16.73,10.63,5.62,-0.71
DCC_bivariate_loop,,4.10,1.10,,2.90,21.82,12.68,7.57,3.97,-1.63
SW_cross_validated,,8.21,4.64,2.90,,19.43,10.03,4.66,1.36,-5.12
SW_15,,37.23,28.89,21.82,19.43,,-9.22,-15.89,-15.78,-28.77
SW_30,,22.16,16.73,12.68,10.03,-9.22,,-5.92,-7.62,-16.96
SW_60,,15.57,10.63,7.57,4.66,-15.89,-5.92,,-2.73,-11.01
SW_120,,8.71,5.62,3.97,1.36,-15.78,-7.62,-2.73,,-6.04
sFC,,3.03,-0.71,-1.63,-5.12,-28.77,-16.96,-11.01,-6.04,
