OnnoKampman/FCEst-benchmarking/results/fmri/sim/d3s/N0200_T0200/HCP_noise_snr_1/all/ttests/covariance_RMSE/boxcar_between_method_performance_ptests.csv
,VWP_joint,SVWP_joint,DCC_joint,DCC_bivariate_loop,SW_cross_validated,SW_15,SW_30,SW_60,SW_120,sFC
VWP_joint,-,nan,nan,nan,nan,nan,nan,nan,nan,nan
SVWP_joint,nan,-,0.0000,0.0000,1.,0.0000,0.0000,0.1086,0.0649,0.0000
DCC_joint,nan,13.8547,-,1.,0.0000,0.0004,0.0015,0.0000,0.0000,0.0000
DCC_bivariate_loop,nan,14.4145,1.5447,-,0.0000,0.0617,0.0710,0.0000,0.0000,0.0000
SW_cross_validated,nan,-0.8259,-18.7825,-19.349,-,0.0000,0.0000,0.0001,0.0002,0.0000
SW_15,nan,15.3191,4.4578,3.1572,19.7246,-,1.,0.0000,0.0000,0.0000
SW_30,nan,14.5104,4.1404,3.115,18.0341,0.5022,-,0.0000,0.0000,0.0000
SW_60,nan,2.9845,-16.7683,-17.4245,4.6846,-17.6758,-15.6568,-,1.,0.001
SW_120,nan,3.142,-12.9691,-13.6432,4.6361,-14.5513,-13.3938,0.5132,-,0.0746
sFC,nan,5.9838,-12.236,-13.0337,8.3724,-13.8376,-12.2754,4.2446,3.1002,-
