OnnoKampman/FCEst-benchmarking/results/fmri/sim/d3s/N0200_T0200/HCP_noise_snr_1/all/ttests/covariance_RMSE/periodic_1_between_method_performance_ptests.csv
,VWP_joint,SVWP_joint,DCC_joint,DCC_bivariate_loop,SW_cross_validated,SW_15,SW_30,SW_60,SW_120,sFC
VWP_joint,-,nan,nan,nan,nan,nan,nan,nan,nan,nan
SVWP_joint,nan,-,0.0000,0.0000,0.0047,0.0000,0.0000,0.0000,1.,0.0000
DCC_joint,nan,6.5344,-,1.,0.2383,1.,0.0000,0.0000,0.0000,0.0000
DCC_bivariate_loop,nan,7.5676,1.6202,-,0.0029,0.0541,0.0000,0.0000,0.0000,0.0000
SW_cross_validated,nan,3.8648,-2.7297,-3.9845,-,1.,0.0000,0.0000,0.0000,0.0000
SW_15,nan,5.6788,-1.4903,-3.1965,1.6354,-,0.0000,0.0000,0.0000,0.0000
SW_30,nan,10.2863,6.3127,5.0499,7.4861,7.7608,-,1.,0.0000,0.0000
SW_60,nan,10.8644,7.2166,6.0919,8.2438,8.5218,1.451,-,0.0000,0.0000
SW_120,nan,-0.5682,-8.5833,-9.8914,-5.0795,-7.577,-12.9081,-13.3476,-,0.0000
sFC,nan,-32.0668,-74.9282,-81.9735,-48.0595,-74.2593,-75.4846,-67.4839,-38.4632,-
