OnnoKampman/FCEst-benchmarking/results/fmri/sim/d3s/N0200_T0200/HCP_noise_snr_1/all/ttests/covariance_matrix_RMSE/null_between_method_performance_T.csv
,VWP_joint,SVWP_joint,DCC_joint,DCC_bivariate_loop,SW_cross_validated,SW_15,SW_30,SW_60,SW_120,sFC
VWP_joint,,,,,,,,,,
SVWP_joint,,,0.06,0.61,11.23,38.75,24.14,13.89,9.45,-14.35
DCC_joint,,0.06,,1.18,18.90,95.98,55.34,30.79,16.68,-23.96
DCC_bivariate_loop,,0.61,1.18,,18.04,94.47,54.01,29.53,15.75,-24.79
SW_cross_validated,,11.23,18.90,18.04,,42.47,18.46,2.29,-2.94,-35.21
SW_15,,38.75,95.98,94.47,42.47,,-40.90,-66.25,-50.47,-87.34
SW_30,,24.14,55.34,54.01,18.46,-40.90,,-24.99,-23.88,-62.32
SW_60,,13.89,30.79,29.53,2.29,-66.25,-24.99,,-6.25,-45.79
SW_120,,9.45,16.68,15.75,-2.94,-50.47,-23.88,-6.25,,-34.01
sFC,,-14.35,-23.96,-24.79,-35.21,-87.34,-62.32,-45.79,-34.01,
