OnnoKampman/FCEst-benchmarking/results/fmri/sim/d3s/N0200_T0200/HCP_noise_snr_1/all/ttests/covariance_matrix_RMSE/periodic_3_between_method_performance_T.csv
,VWP_joint,SVWP_joint,DCC_joint,DCC_bivariate_loop,SW_cross_validated,SW_15,SW_30,SW_60,SW_120,sFC
VWP_joint,,,,,,,,,,
SVWP_joint,,,-11.19,-17.01,5.40,24.58,6.94,4.46,7.28,-16.98
DCC_joint,,-11.19,,-11.17,25.49,72.92,33.84,30.22,30.52,-11.35
DCC_bivariate_loop,,-17.01,-11.17,,33.68,81.77,43.46,40.28,39.17,0.85
SW_cross_validated,,5.40,25.49,33.68,,28.42,1.69,-2.10,2.44,-34.89
SW_15,,24.58,72.92,81.77,28.42,,-33.82,-40.62,-27.85,-89.76
SW_30,,6.94,33.84,43.46,1.69,-33.82,,-4.76,1.06,-46.42
SW_60,,4.46,30.22,40.28,-2.10,-40.62,-4.76,,5.23,-43.23
SW_120,,7.28,30.52,39.17,2.44,-27.85,1.06,5.23,,-41.01
sFC,,-16.98,-11.35,0.85,-34.89,-89.76,-46.42,-43.23,-41.01,
